X: 1358
T: An Port Ard
R: jig
M: 6/8
K: Edorian
f|:gfe fed|B^cd e2 f|gfe f2 e|dBA B2 g|
gfe f2 e|dB^c d2 e|dBA FGA|1 BGE E2 f:|2 BGE E2 F||
|:GFG AGA|B2 e dBA|GEF G2 A|BAG A2 B|
GEF G2 A|B2 e dde|dBA FGA|1 BGE E2 F:|2 BGE E2 f||

